P1
21 33
000000011111111000000
000011111111111111000
001111111111111111110
011111111111111111110
011111111111111111111
111111111000111111111
111111111000011111111
111111110000011111111
111111110000011111111
111111110000011111111
111111110000111111111
111111110000111111111
000000000001111111110
000000000011111111110
000000000111111111100
000000001111111111100
001000011111111111000
000000111111111110000
000001111111111100000
000011111111111000000
000111111111110000000
000111111111100000000
001111111111100000000
011111111111000000000
011111111110000000000
111111111100000000000
111111111100000000000
111111111000000000000
111111111111111111111
111111111111111111111
111111111111111111111
111111111111111111111
111111111111111111111
