P1
23 32
00000000001111111111000
00000000011111111111000
00000000011111111111000
00000000111111111111000
00000000111111111111000
00000001111111111111000
00000001111101111111000
00000011111101111111000
00000011111001111111000
00000111111001111111000
00001111110011111111000
00001111110011111111000
00011111100011111111000
00011111100011111111000
00111111000011111111000
00111111000011111111000
01111110000011111111000
01111110000011111111000
11111100000011111111000
11111100000011111111100
11111111111111111111111
11111111111111111111111
11111111111111111111111
11111111111111111111111
11111111111111111111111
00000000000011111111000
00000000000011111111000
00001000000011111111000
00000000010011111111000
00000000000011111111000
00000000000011111111000
00000000000011111111000
