P1
21 33
111111111111111111111
111111111111111111111
111111111111111111111
111111111111111111111
111111111111111111111
111111110000000000000
111111110000000000000
111111110000000000000
111111110000000000000
111111110011111111000
111111110111111111100
111111111111111111110
111111111111111111111
111111111111111111111
111111111111111111111
111111111000111111111
111111111000011111111
000000000000011111111
000000000000011111111
000000000000011111111
111111110000011111111
111111110000011111111
111111110000011111111
111111110000011111111
111111110000011111111
111111110000011111111
111111111000011111111
111111111000111111111
011111111111111111111
011111111111111111110
001111111111111111100
000111111111111111000
000000111111111100000
