P1
23 32
11111111111111111111111
11111111111111111111111
11111111111111111111111
11111111111111111111111
01111111111111111111111
00000000000000111111110
00000000000001111111110
00000000000001111111110
00000000000011111111100
00000000000011111111100
00000000000111111111000
00000000000111111111000
00000000001111111110000
00000000001111111110000
00000000001111111110011
00010000011111111100011
00001000011111111100100
10000000111111111000100
00000000111111111000000
00000001111111110000000
00000001111111110000000
00000011111111110000000
00000011111111100000000
00000011111111100000000
00000111111111000000000
00000111111111000000000
00001111111110000000000
00001111111110000000000
00011111111100000000000
00011111111100000000000
00111111111100000000000
00111111111000000000000
