P1
21 34
000000011111111000000
000011111111111111000
001111111111111111100
011111111111111111110
011111111111111111111
111111111000111111111
111111111000011111111
111111110000011111111
111111110000011111111
111111110000011111111
111111110000011111111
111111110000011111111
111111110000011111111
011111111000011111111
011111111000111111110
000111111111111111100
000001111111111100000
000111111111111111000
001111111111111111110
011111111000111111110
111111111000011111111
111111110000011111111
111111110000011111111
111111110000011111111
111111110000011111111
111111110000011111111
111111110000011111111
111111110000011111111
111111111000111111111
111111111111111111111
011111111111111111110
001111111111111111100
000111111111111111000
000000111111111100000
